X:1
T:Rowantree Hill
C:Jack Armstrong Arr. Roy Harknell
C:(Some Grace Notes Suggested by Paul Tabbush)
L:1/8
M:3/4
K:G
V:1
G2 | B3 c A2 | {F}G4 F2 | E2 G3 E | D4 D2 | \
B3 A B2 | d2 c2 A2 | {/BA}G4 AB | A4 D2 |
B3 c d2 | d3 e f2 | g3 G A2 | {A}B4 B2 | \
A3 c e2 | d2 B2 G2 | F B3 A2 | {F}G4 ||
(3def | g3 a f2 | e3 g e2 | d2 G2 A2 | {c}B4 d2 x2 | \
g3 a f2 | e2 d2 B2 | A2 E3 B | A4 E2 |
| D3 E F2 | G3 A B2 | E c3 A2 | F d3 c2 | \
B !fermata!g3 B2 | c2 A2 D2 | F B3 A2 | {F}G4 |]
